src/assets/objectifs/reliability.svg

<?xml version="1.0" encoding="utf-8"?>
<svg width="64px" height="64px" viewBox="0 0 64 64" version="1.1" xmlns:xlink="http://www.w3.org/1999/xlink" xmlns="http://www.w3.org/2000/svg">
  <defs>
    <path d="M0 0L64 0L64 64L0 64L0 0Z" id="path_1" />
    <clipPath id="clip_1">
      <use xlink:href="#path_1" />
    </clipPath>
  </defs>
  <g id="reliability" clip-path="url(#clip_1)">
    <path d="M0 0L64 0L64 64L0 64L0 0Z" id="reliability" fill="none" fill-rule="evenodd" stroke="none" />
    <path d="M61 38L55.163 38L49.756 36.2L48 31.808L48 28.5C47.9929 26.2124 46.2671 24.296 43.9929 24.05C43.9929 23.913 43.9999 23.776 43.9999 23.639L43.9999 9C43.9999 8.55816 43.71 8.16874 43.2868 8.04198L23.2868 2.04198C23.0996 1.98589 22.9001 1.98589 22.7128 2.04198L2.71284 8.04198C2.28971 8.16883 1.99994 8.55827 2 9L2 23.639C2 24.103 2.031 24.561 2.048 25.022L2.048 25.022L2.048 25.022C2.073 25.697 2.111 26.368 2.171 27.035C2.181 27.149 2.195 27.256 2.206 27.368C3.43384 40.065 11.1262 51.2298 22.5529 56.9C22.8344 57.0406 23.1655 57.0406 23.4469 56.9C24.943 56.149 26.3869 55.2985 27.7689 54.354C28.0828 54.7864 28.4795 55.1521 28.9359 55.43C27.9374 56.6209 27.719 58.2823 28.3759 59.6907C29.0328 61.0991 30.4459 61.9996 32 62L49 62C49.1975 61.9997 49.3905 61.9413 49.555 61.832L55.3 58L61 58C61.5523 58 62 57.5523 62 57L62 39C62 38.4477 61.5523 38 61 38L61 38ZM39.357 33.087L40.523 36L34.713 36C36.8364 32.1906 37.9645 27.9071 37.993 23.546L42 22.344L42 23.639C42 23.853 41.993 24.066 41.989 24.28C40.2019 24.9148 39.0058 26.6035 39 28.5L39 31.229C38.9995 31.8655 39.1207 32.4962 39.357 33.0871L39.357 33.087ZM25 40C25.0011 41.0215 25.3949 42.0036 26.1 42.743C25.729 43.013 25.365 43.293 24.982 43.543L23 44.811L21.022 43.54C16.5877 40.6975 13.2162 36.4704 11.431 31.515L35.971 24.153C35.8345 28.3486 34.5963 32.4344 32.381 36L29 36C26.7909 36 25 37.7909 25 40L25 40ZM4.543 29.737C4.535 29.687 4.526 29.637 4.518 29.589L8.492 28.4C8.61 29 8.753 29.6 8.913 30.186L4.882 31.396C4.75 30.822 4.641 30.275 4.543 29.737L4.543 29.737ZM4.082 25.72L8.037 24.533C8.065 25.16 8.111 25.783 8.183 26.401L4.237 27.585C4.227 27.495 4.219 27.406 4.209 27.316C4.158 26.8 4.112 26.277 4.082 25.72L4.082 25.72ZM36 14.056L10 21.856L10 14.705L23.034 10.05L36 13.754L36 14.056ZM36 16.144L36 18.056L10.136 25.815C10.0733 25.1937 10.034 24.5683 10.018 23.939L36 16.144ZM42 18.344L42 20.256L38 21.456L38 19.544L42 18.344ZM42 16.256L38 17.456L38 15.544L42 14.344L42 16.256ZM10.416 27.819L26.688 22.938L36 20.144L36 22.056L10.828 29.608C10.67 29.018 10.529 28.423 10.416 27.819L10.416 27.819ZM4 9.744L23 4.044L42 9.744L42 12.256L38 13.456L38 13C37.9998 12.5537 37.704 12.1617 37.275 12.039L23.275 8.03899C23.0744 7.98064 22.8605 7.98729 22.664 8.05799L8.66396 13.058C8.26576 13.2001 7.99993 13.5772 8 14L8 22.456L4 23.656L4 9.744L4 9.744ZM23 54.878C14.3865 50.4534 7.99392 42.6544 5.346 33.34L9.513 32.09C11.4358 37.5028 15.1039 42.1225 19.94 45.222L22.459 46.841C22.7885 47.053 23.2115 47.053 23.541 46.841L26.06 45.222L26.086 45.205C25.734 46.8641 26.4796 48.5629 27.939 49.427C27.3321 50.1469 26.9994 51.0584 27 52C27.0017 52.1391 27.0111 52.278 27.028 52.416C25.7419 53.3258 24.3962 54.1483 23 54.878L23 54.878ZM48.7 60L32 60C30.8954 60 30 59.1046 30 58C29.9982 56.9616 30.7985 56.0981 31.834 56.021C32.3714 55.9654 32.7725 55.5008 32.749 54.961C32.728 54.424 32.2864 53.9996 31.749 54L31 54C29.8954 54 29 53.1046 29 52C29 50.8954 29.8954 50 31 50C31.5523 50 32 49.5523 32 49C32 48.4477 31.5523 48 31 48L30 48C28.8954 48 28 47.1046 28 46C28 44.8954 28.8954 44 30 44C30.5523 44 31 43.5523 31 43C31 42.4477 30.5523 42 30 42L29 42C27.8954 42 27 41.1046 27 40C27 38.8954 27.8954 38 29 38L42 38C42.3321 38.0003 42.6426 37.8356 42.8288 37.5607C43.015 37.2857 43.0525 36.9362 42.929 36.628L41.215 32.344C41.0725 31.9896 40.9995 31.611 41 31.229L41 28.5C41 27.1193 42.1193 26 43.5 26C44.8807 26 46 27.1193 46 28.5L46 32C46.0001 32.1275 46.0242 32.2537 46.071 32.3721L48.071 37.3721C48.1812 37.6448 48.4052 37.8556 48.684 37.9491L54 39.721L54 56.465L48.7 60ZM60 56L56 56L56 40L60 40L60 56ZM54.62 14.84L53.253 16.3C53.7095 16.7273 54.1387 17.1828 54.538 17.664L56.076 16.385C55.6233 15.8401 55.137 15.3241 54.62 14.84L54.62 14.84ZM60 27.249C60 26.857 59.9867 26.4687 59.96 26.084L57.965 26.219C57.9877 26.559 57.9993 26.9023 58 27.249C58 27.532 57.992 27.814 57.976 28.093L59.976 28.208C59.992 27.89 60 27.5703 60 27.249L60 27.249ZM52.985 13.489C52.4116 13.0722 51.8127 12.6914 51.192 12.349L50.227 14.1C50.7743 14.4002 51.3023 14.7342 51.808 15.1L52.985 13.489Z" id="Forme" fill="#FFFFFF" fill-rule="evenodd" stroke="none" />
    <path d="M59.724 30.314L57.756 29.956C57.6446 30.5706 57.4943 31.1775 57.306 31.773L59.212 32.373C59.4259 31.6982 59.5969 31.0104 59.724 30.314L59.724 30.314ZM49.27 11.442C48.6108 11.1803 47.9358 10.9605 47.249 10.784L46.749 12.721C47.3544 12.8771 47.9496 13.0708 48.531 13.301L49.27 11.442ZM56.125 34.515L57.875 35.485C58.075 35.118 58.275 34.742 58.446 34.357L56.63 33.521C56.4767 33.859 56.3083 34.1903 56.125 34.515L56.125 34.515ZM55.645 19.176C55.9811 19.7021 56.2844 20.2485 56.553 20.812L58.359 19.954C58.0549 19.3144 57.7109 18.6945 57.329 18.098L55.645 19.176ZM57.25 22.549C57.4449 23.1423 57.6025 23.7471 57.722 24.36L59.685 23.979C59.55 23.283 59.3709 22.5963 59.149 21.923L57.25 22.549ZM46.986 21.072C49.4158 22.0345 51.0085 24.3865 51 27L53 27C53.0116 23.5679 50.9201 20.4788 47.7291 19.215L47.3721 19.072L46.6281 20.928L46.986 21.072Z" id="Forme" fill="#FFFFFF" fill-rule="evenodd" stroke="none" />
  </g>
</svg>

<svg xmlns="http://www.w3.org/2000/svg" viewBox="0 0 64 64" id="reliability"><path d="M61 38H55.163l-5.407-1.8L48 31.808V28.5a4.49 4.49 0 0 0-4.007-4.45c0-.137.007-.274.007-.411V9a1 1 0 0 0-.713-.958l-20-6a1 1 0 0 0-.574 0l-20 6A1 1 0 0 0 2 9V23.639c0 .464.031.922.048 1.383h0v0c.025.675.063 1.346.123 2.013.01.114.024.221.035.333A36.937 36.937 0 0 0 22.553 56.9a1 1 0 0 0 .894 0 37.375 37.375 0 0 0 4.322-2.546 4.036 4.036 0 0 0 1.167 1.076A4 4 0 0 0 32 62H49a1.006 1.006 0 0 0 .555-.168L55.3 58H61a1 1 0 0 0 1-1V39A1 1 0 0 0 61 38zM39.357 33.087L40.523 36h-5.81a25.927 25.927 0 0 0 3.28-12.454L42 22.344v1.295c0 .214-.007.427-.011.641A4.493 4.493 0 0 0 39 28.5v2.729A4.991 4.991 0 0 0 39.357 33.087zM25 40a3.981 3.981 0 0 0 1.1 2.743c-.371.27-.735.55-1.118.8L23 44.811 21.022 43.54a23.909 23.909 0 0 1-9.591-12.025l24.54-7.362A23.923 23.923 0 0 1 32.381 36H29A4 4 0 0 0 25 40zM4.543 29.737c-.008-.05-.017-.1-.025-.148L8.492 28.4c.118.6.261 1.2.421 1.786l-4.031 1.21C4.75 30.822 4.641 30.275 4.543 29.737zM4.082 25.72l3.955-1.187c.028.627.074 1.25.146 1.868L4.237 27.585c-.01-.09-.018-.179-.028-.269C4.158 26.8 4.112 26.277 4.082 25.72zM36 14.056l-26 7.8V14.705L23.034 10.05 36 13.754zm0 2.088v1.912L10.136 25.815q-.094-.932-.118-1.876zm6 2.2v1.912l-4 1.2V19.544zm0-2.088l-4 1.2V15.544l4-1.2zM10.416 27.819l16.272-4.881L36 20.144v1.912L10.828 29.608C10.67 29.018 10.529 28.423 10.416 27.819zM4 9.744l19-5.7 19 5.7v2.512l-4 1.2V13a1 1 0 0 0-.725-.961l-14-4a.989.989 0 0 0-.611.019l-14 5A1 1 0 0 0 8 14v8.456l-4 1.2V9.744zM23 54.878A34.961 34.961 0 0 1 5.346 33.34l4.167-1.25A25.892 25.892 0 0 0 19.94 45.222l2.519 1.619a1 1 0 0 0 1.082 0l2.519-1.619.026-.017a3.953 3.953 0 0 0 1.853 4.222A3.988 3.988 0 0 0 27 52a3.806 3.806 0 0 0 .028.416A35.224 35.224 0 0 1 23 54.878zM48.7 60H32a2 2 0 0 1-2-2 1.981 1.981 0 0 1 1.834-1.979 1.021 1.021 0 0 0 .915-1.06 1 1 0 0 0-1-.961H31a2 2 0 0 1 0-4 1 1 0 0 0 0-2H30a2 2 0 0 1 0-4 1 1 0 0 0 0-2H29a2 2 0 0 1 0-4H42a1 1 0 0 0 .929-1.372l-1.714-4.284A2.977 2.977 0 0 1 41 31.229V28.5a2.5 2.5 0 0 1 5 0V32a1.012 1.012 0 0 0 .071.372l2 5a1.006 1.006 0 0 0 .613.577L54 39.721V56.465zM60 56H56V40h4zM54.62 14.84L53.253 16.3a14.915 14.915 0 0 1 1.285 1.364l1.538-1.279A16.993 16.993 0 0 0 54.62 14.84zM60 27.249q0-.588-.04-1.165l-1.995.135q.034.51.035 1.03c0 .283-.008.565-.024.844l2 .115Q60 27.731 60 27.249zM52.985 13.489a17.078 17.078 0 0 0-1.793-1.14L50.227 14.1a15.028 15.028 0 0 1 1.581 1z"></path><path d="M59.724 30.314l-1.968-.358a14.744 14.744 0 0 1-.45 1.817l1.906.6A16.8 16.8 0 0 0 59.724 30.314zM49.27 11.442a16.839 16.839 0 0 0-2.021-.658l-.5 1.937a15.058 15.058 0 0 1 1.782.58zM56.125 34.515l1.75.97c.2-.367.4-.743.571-1.128l-1.816-.836Q56.4 34.028 56.125 34.515zM55.645 19.176a15.127 15.127 0 0 1 .908 1.636l1.806-.858a16.915 16.915 0 0 0-1.03-1.856zM57.25 22.549a15.007 15.007 0 0 1 .472 1.811l1.963-.381a16.778 16.778 0 0 0-.536-2.056zM46.986 21.072A6.354 6.354 0 0 1 51 27h2a8.343 8.343 0 0 0-5.271-7.785l-.357-.143-.744 1.856z"></path></svg>
